symbols/web/looks_3/materialsymbolssharp/looks_3_wght100gradN25_40px.svg

<svg xmlns="http://www.w3.org/2000/svg" height="40" width="40"><path d="M16.167 27.25h7.708v-14.5h-7.708v.958h6.75V19.5h-4.25v.958h4.25v5.834h-6.75Zm-8.959 5.542V7.208h25.584v25.584Zm1-1h23.584V8.208H8.208Zm0 0V8.208v23.584Z"/></svg>

<svg xmlns="http://www.w3.org/2000/svg" height="40" width="40"><path d="M16.167 27.25H23.875V12.75H16.167V13.708H22.917V19.5H18.667V20.458H22.917V26.292H16.167ZM7.208 32.792V7.208H32.792V32.792ZM8.208 31.792H31.792V8.208H8.208ZM8.208 31.792V8.208V31.792Z"/></svg>
